!!!COM: Palestrina, Giovanni Perluigi da
!!!OPR: In semidupl. maj. (II)
!!!OTL: Credo
**kern	**kern	**kern	**kern	**kern
*Ibass	*Itenor	*Itenor	*Icalto	*Icant
!Bassus	!Tenor 2	!Tenor 1	!Altus	!Cantus
*clefF4	*clefGv2	*clefGv2	*clefG2	*clefG2
*k[b-]	*k[b-]	*k[b-]	*k[b-]	*k[b-]
*F:ion	*F:ion	*F:ion	*F:ion	*F:ion
*M4/2	*M4/2	*M4/2	*M4/2	*M4/2
=1	=1	=1	=1	=1
0r	1c	0r	0r	0r
.	2B-	.	.	.
.	2A	.	.	.
=2	=2	=2	=2	=2
1F	1c	0r	0r	0r
2E	2c	.	.	.
2D	2B-	.	.	.
=3	=3	=3	=3	=3
1F	1.A	0r	1r	0r
2F	.	.	1c	.
2E	2G	.	.	.
=4	=4	=4	=4	=4
1D	1F	0r	2B-	1f
.	.	.	2A	.
2C	1G	.	2c	2e
2GG	.	.	2B-	2d
=5	=5	=5	=5	=5
1D	1F	0r	2A	1f
.	.	.	4F	.
.	.	.	4G	.
1r	1r	.	4A	2f
.	.	.	4B-	.
.	.	.	[2c	2e
=6	=6	=6	=6	=6
2F	1r	1r	2c]	1d
2G	.	.	2B	.
2.A	2.F	2r	1c	[1c
.	.	[2F	.	.
4G	4G	.	.	.
=7	=7	=7	=7	=7
2F	2A	2F]	2r	1c]
2E	2G	2G	1c	.
4F	1F	2A	.	1r
4E	.	.	.	.
2D	.	2B-	2d	.
=8	=8	=8	=8	=8
2C	2G	1c	2e	0r
2AA	2A	.	2f	.
1GG	[1d	2B-	1g	.
.	.	2B-	.	.
=9	=9	=9	=9	=9
1D	1d]	2.A	2.f	2r
.	.	.	.	1f
.	.	4G	4e	.
1r	1r	2F	2d	.
.	.	2E	2c	2g
=10	=10	=10	=10	=10
0r	2r	1D	1f	2a
.	2F	.	.	2b-
.	2G	1C	2.e	2.cc
.	[2A	.	.	.
.	.	.	4d	4b-
=11	=11	=11	=11	=11
0r	2A]	0r	2c	2a
.	2B-	.	2.d	2.f
.	2A	.	.	.
.	.	.	4c	4e
.	2A	.	[2c	2c
=12	=12	=12	=12	=12
1r	1G	2r	2c]	2d
.	.	1G	2B	2d
1C	1r	.	1c	1e
.	.	[2A	.	.
=13	=13	=13	=13	=13
1D	0r	2A]	1r	1f
.	.	2B-	.	.
2E	.	2G	1c	2g
2F	.	[2c	.	[2a
=14	=14	=14	=14	=14
2D	1F	2c]	1d	2a]
2D	.	2B	.	2f
1C	1G	2c	1e	2.cc
.	.	[2c	.	.
.	.	.	.	4b-
=15	=15	=15	=15	=15
2.F	1A	4c]	1f	4a
.	.	4c	.	4g
.	.	1F	.	4a
4F	.	.	.	4g
2BB-	1B-	.	2d	4f
.	.	.	.	4e
2BB-	.	2D	2d	[2f
=16	=16	=16	=16	=16
1.C	1.G	4E	[0c	2f]
.	.	4C	.	.
.	.	1c	.	4e
.	.	.	.	4d
.	.	.	.	2e
2C	2G	2G	.	2e
=17	=17	=17	=17	=17
[0FF	[0F	[0A	1c_	[0f
.	.	.	1c_	.
=18	=18	=18	=18	=18
0FF]	0F]	0A]	0c]	0f]
!! Et ex Patre
*Ibass	*Itenor	*Itenor	*Icalto	*Icant
!Bassus	!Tenor 2	!Tenor 1	!Altus	!Cantus
*clefF4	*clefGv2	*clefGv2	*clefG2	*clefG2
*k[b-]	*k[b-]	*k[b-]	*k[b-]	*k[b-]
*F:ion	*F:ion	*F:ion	*F:ion	*F:ion
*M4/2	*M4/2	*M4/2	*M4/2	*M4/2
=19	=19	=19	=19	=19
0r	0r	0r	1B-	1r
.	.	.	1F	2r
.	.	.	.	[2f
=20	=20	=20	=20	=20
1r	0r	0r	2B-	2f]
.	.	.	2c	2e
1BB-	.	.	1d	2f
.	.	.	.	2g
=21	=21	=21	=21	=21
1FF	2r	0r	2.c	1a
.	1F	.	.	.
.	.	.	4A	.
2BB-	.	.	2d	1g
2C	2E	.	4c	.
.	.	.	4B-	.
=22	=22	=22	=22	=22
2D	2F	0r	4A	2f
.	.	.	4B-	.
4C	2G	.	4c	2.e
4BB-	.	.	4d	.
2AA	1A	.	[1c	.
.	.	.	.	4c
2FF	.	.	.	[2f
=23	=23	=23	=23	=23
1C	1G	2r	1c]	2f]
.	.	2C	.	2e
1r	4F	2D	1A	2f
.	4G	.	.	.
.	4A	[2F	.	2f
.	4B-	.	.	.
=24	=24	=24	=24	=24
0r	2c	4F]	2r	2a
.	.	4F	.	.
.	2C	2E	2c	2.cc
.	1F	2D	2d	.
.	.	.	.	4b-
.	.	2D	[2f	2b-
=25	=25	=25	=25	=25
0r	2r	0C	4f]	2a
.	.	.	4e	.
.	2G	.	2e	4g
.	.	.	.	4f
.	2A	.	2.c	2.e
.	[2c	.	.	.
.	.	.	4d	4f
=26	=26	=26	=26	=26
0r	4c]	0r	4e	4g
.	4c	.	4c	4e
.	2B-	.	2.d	2.f
.	2A	.	.	.
.	.	.	4c	4e
.	2A	.	[2c	2c
=27	=27	=27	=27	=27
1r	1G	2r	2c]	2.d
.	.	2G	2B	.
.	.	.	.	4e
2r	2F	2A	1c	2f
2C	2E	[2c	.	2g
=28	=28	=28	=28	=28
2D	1D	4c]	1r	2f
.	.	4B-	.	.
2.F	.	2B-	.	2f
.	1C	2A	2r	2a
4E	.	.	.	.
2E	.	2G	2c	[2cc
=29	=29	=29	=29	=29
2D	2r	2F	2d	2cc]
2D	2F	2D	2f	2b
2C	2G	2E	2e	2cc
[2BB-	[2B-	2F	[2d	[2f
=30	=30	=30	=30	=30
4BB-]	4B-]	2F	2d]	4f]
4BB-	4B-	.	.	4g
2FF	2A	2c	1f	4a
.	.	.	.	4f
2C	2G	2.c	.	2g
2C	2G	.	2e	2g
.	.	4c	.	.
=31	=31	=31	=31	=31
[0FF	[0F	[0c	[0f	[0a
=32	=32	=32	=32	=32
0FF]	0F]	0c]	0f]	0a]
!! Genitum
*Ibass	*Itenor	*Itenor	*Icalto	*Icant
!Bassus	!Tenor 2	!Tenor 1	!Altus	!Cantus
*clefF4	*clefGv2	*clefGv2	*clefG2	*clefG2
*k[b-]	*k[b-]	*k[b-]	*k[b-]	*k[b-]
*F:ion	*F:ion	*F:ion	*F:ion	*F:ion
*M4/2	*M4/2	*M4/2	*M4/2	*M4/2
=33	=33	=33	=33	=33
0r	1r	1.F	0r	0r
.	2r	.	.	.
.	[2C	2G	.	.
=34	=34	=34	=34	=34
0r	2C]	2A	0r	0r
.	2D	2B-	.	.
.	2E	1c	.	.
.	2F	.	.	.
=35	=35	=35	=35	=35
1r	1G	4B-	0r	0r
.	.	4A	.	.
.	.	4B-	.	.
.	.	4c	.	.
2r	4F	2d	.	.
.	4E	.	.	.
[2FF	4F	[2c	.	.
.	4G	.	.	.
=36	=36	=36	=36	=36
2FF]	2A	2c]	0r	0r
2GG	2.G	2B-	.	.
2AA	.	2c	.	.
.	4F	.	.	.
2BB-	[2F	4B-	.	.
.	.	4A	.	.
=37	=37	=37	=37	=37
1C	2F]	1G	1c	1r
.	2E	.	.	.
1BB-	1F	2r	[1d	1f
.	.	[2B-	.	.
=38	=38	=38	=38	=38
0r	0r	2B-]	2d]	2g
.	.	2c	2e	2a
.	.	2d	2f	2b-
.	.	2e	2g	[2cc
=39	=39	=39	=39	=39
0r	0r	2f	2a	2cc]
.	.	2F	2.f	2a
.	.	1G	.	1b-
.	.	.	8e	.
.	.	.	8d	.
.	.	.	2e	.
=40	=40	=40	=40	=40
0r	1r	2.F	2f	1a
.	.	.	2f	.
.	.	4G	.	.
.	1F	4A	2c	1a
.	.	4G	.	.
.	.	4A	[2f	.
.	.	4B-	.	.
=41	=41	=41	=41	=41
0r	1C	1c	2f]	1g
.	.	.	2e	.
.	1F	1r	2d	4a
.	.	.	.	4g
.	.	.	2c	4f
.	.	.	.	4e
=42	=42	=42	=42	=42
1BB-	2F	0r	1B-	2d
.	2G	.	.	2d
1FF	1A	.	2.c	2f
.	.	.	.	2c
.	.	.	4A	.
=43	=43	=43	=43	=43
1BB-	1F	0r	4B-	2d
.	.	.	4c	.
.	.	.	1d	2.f
2BB-	1G	.	.	.
.	.	.	.	8e
.	.	.	.	8d
2C	.	.	2c	2e
=44	=44	=44	=44	=44
2D	4F	1F	2A	1a
.	4G	.	.	.
2.F	4A	.	2F	.
.	4B-	.	.	.
.	[1c	1C	1G	2g
8E	.	.	.	.
8D	.	.	.	.
2E	.	.	.	[2cc
=45	=45	=45	=45	=45
2F	2c]	1F	2A	2cc]
2BB-	2d	.	2B-	2b-
2FF	2c	2F	1c	2a
2C	2C	2G	.	[2g
=46	=46	=46	=46	=46
2AA	2E	1A	1.c	4g]
.	.	.	.	4f
2FF	2F	.	.	1f
2C	2G	1G	.	.
2C	2c	.	2G	2e
=47	=47	=47	=47	=47
[0FF	[0A	[0F	[0c	[0f
=48	=48	=48	=48	=48
0FF]	0A]	0F]	0c]	0f]
!! Et incarnatus
*Ibass	*Itenor	*Itenor	*Icalto	*Icant
!Bassus	!Tenor 2	!Tenor 1	!Altus	!Cantus
*clefF4	*clefGv2	*clefGv2	*clefG2	*clefG2
*k[b-]	*k[b-]	*k[b-]	*k[b-]	*k[b-]
*F:ion	*F:ion	*F:ion	*F:ion	*F:ion
*M4/2	*M4/2	*M4/2	*M4/2	*M4/2
=49	=49	=49	=49	=49
0r	0r	0r	1r	1f
.	.	.	1c	2cc
.	.	.	.	2cc
=50	=50	=50	=50	=50
0r	0r	1r	2g	2b-
.	.	.	2g	2g
.	.	2r	2.f	[1a
.	.	2F	.	.
.	.	.	4d	.
=51	=51	=51	=51	=51
0r	0r	2c	4e	2a]
.	.	.	4f	.
.	.	2c	2.e	4g
.	.	.	.	4f
.	.	2B-	.	2.g
.	.	.	4d	.
.	.	2G	[2d	.
.	.	.	.	4f
=52	=52	=52	=52	=52
1r	0r	1A	2d]	2e
.	.	.	2c#	2a
1BB-	.	2r	2d	2f
.	.	2d	[2f	2b-
=53	=53	=53	=53	=53
2F	0r	2c	4f]	1a
.	.	.	4e	.
2F	.	2A	4c	.
.	.	.	4d	.
2E-	.	2B-	1e-	1g
2C	.	4c	.	.
.	.	4B-	.	.
=54	=54	=54	=54	=54
1D	2r	4A	1d	1f
.	.	4F	.	.
.	2F	2.f	.	.
1r	2c	.	2r	2.g
.	.	4e	.	.
.	2c	[2e	2c	.
.	.	.	.	4a
=55	=55	=55	=55	=55
0r	2B-	4e]	2f	1b-
.	.	4d	.	.
.	2G	1d	2g	.
.	2A	.	2e	1a
.	2A	2c#	2e	.
=56	=56	=56	=56	=56
2r	2.B-	1d	1d	1f
2BB-	.	.	.	.
.	4A	.	.	.
2.E-	4G	1B-	1r	1r
.	4F	.	.	.
.	[2G	.	.	.
4D	.	.	.	.
=57	=57	=57	=57	=57
2C	2G]	2e-	1r	0r
2BB-	2B-	2d	.	.
2F	2A	2c	2r	.
2D	[2B-	2d	2f	.
=58	=58	=58	=58	=58
2E-	2B-]	1c	2g	2r
2F	2A	.	1f	2cc
2BB-	1B-	1B-	.	1dd
[2B-	.	.	2d	.
=59	=59	=59	=59	=59
2B-]	1F	2r	1.f	1cc
2A	.	2c	.	.
1B-	1r	1d	.	1b-
.	.	.	2f	.
=60	=60	=60	=60	=60
1F	2r	1c	1f	1a
.	2c	.	.	.
1r	1d	1B-	1r	2g
.	.	.	.	[2f
=61	=61	=61	=61	=61
0r	2c	2A	2F	4f]
.	.	.	.	8e
.	.	.	.	8d
.	2B-	2G	2G	2e
.	2c	[1F	2A	[1f
.	2d	.	2B-	.
=62	=62	=62	=62	=62
0r	1c	1F]	2B-	0f]
.	.	.	2A	.
.	1d	2r	4B-	.
.	.	.	4c	.
.	.	2B-	4d	.
.	.	.	4e	.
=63	=63	=63	=63	=63
2r	2d	2B-	1f	0r
2FF	2c	2A	.	.
2GG	2B-	2G	2r	.
2AA	2A	[2F	2c	.
=64	=64	=64	=64	=64
2BB-	2G	4F]	2d	0r
.	.	8E	.	.
.	.	8D	.	.
2C	2G	2E	1c	.
1FF	4A	2F	.	.
.	4B-	.	.	.
.	4c	2C	[2f	.
.	4A	.	.	.
=65	=65	=65	=65	=65
0r	2B-	2D	2f]	1r
.	2c	2E	2e	.
.	2c	2F	2.d	2r
.	2B	2G	.	2g
.	.	.	4e	.
=66	=66	=66	=66	=66
1FF	1c	2F	2f	4a
.	.	.	.	4b-
.	.	2C	2f	4cc
.	.	.	.	4a
2GG	2r	2G	2d	2b-
2AA	2c	2E	2c	2a
=67	=67	=67	=67	=67
1BB-	2B-	4D	1d	2g
.	.	4E	.	.
.	2A	4F	.	1f
.	.	4D	.	.
1C	2G	4E	1c	.
.	.	4C	.	.
.	2G	2c	.	2e
=68	=68	=68	=68	=68
[0FF	[0F	[0A	[0c	[0f
=69	=69	=69	=69	=69
0FF]	0F]	0A]	0c]	0f]
*	*	*	*	*-
!! Et resurrexit
*Itenor	*Itenor	*Icalto	*Icant
!Tenor 2	!Tenor 1	!Altus	!Cantus
*clefGv2	*clefGv2	*clefG2	*clefG2
*k[b-]	*k[b-]	*k[b-]	*k[b-]
*F:ion	*F:ion	*F:ion	*F:ion
*M4/2	*M4/2	*M4/2	*M4/2
=70	=70	=70	=70
0r	0r	1g	0r
.	.	2g	.
.	.	2g	.
=71	=71	=71	=71
0r	1r	1f	0r
.	1c	2e	.
.	.	[2g	.
=72	=72	=72	=72
0r	2c	4g]	0r
.	.	4f	.
.	2c	2e	.
.	1B-	1d	.
=73	=73	=73	=73
0r	2A	2.c	1cc
.	2.c	.	.
.	.	4d	.
.	.	2e	2cc
.	4B-	.	.
.	2A	[2f	2cc
=74	=74	=74	=74
0r	1G	2f]	1b-
.	.	2e	.
.	[1F	1f	2a
.	.	.	[2cc
=75	=75	=75	=75
2r	1F]	2c	4cc]
.	.	.	4b-
2F	.	2.f	2a
1c	2r	.	1g
.	.	8e	.
.	.	8d	.
.	2C	2e	.
=76	=76	=76	=76
2c	1F	2f	1f
1c	.	2.a	.
.	2F	.	1r
.	.	4g	.
[2d	2F	2f	.
=77	=77	=77	=77
4d]	1A	2.e	2r
4c	.	.	.
1c	.	.	2c
.	.	8d	.
.	.	8c	.
.	2.G	1d	1g
2B	.	.	.
.	4F	.	.
=78	=78	=78	=78
0c	4E	1c	2g
.	4D	.	.
.	2E	.	2g
.	[1F	2r	[1a
.	.	2F	.
=79	=79	=79	=79
0r	2F]	1c	2a]
.	4E	.	4g
.	4D	.	4f
.	2E	2c	2g
.	2F	2c	[2a
=80	=80	=80	=80
1F	4D	2d	4a]
.	4E	.	4g
.	4F	2.c	2f
.	4G	.	.
1c	4A	.	1e
.	4B-	4d	.
.	2c	4e	.
.	.	4f	.
=81	=81	=81	=81
2c	2C	1g	2r
2c	1c	.	2e
1d	.	1G	1g
.	2B	.	.
=82	=82	=82	=82
1c	2c	1r	2g
.	2C	.	2g
1r	[1F	2r	1a
.	.	2F	.
=83	=83	=83	=83
1C	2F]	1c	2g
.	2E	.	2.cc
1F	1A	2c	.
.	.	.	4b-
.	.	2c	4a
.	.	.	4g
=84	=84	=84	=84
2F	2.D	1d	4f
.	.	.	4d
2F	.	.	2.f
.	4E	.	.
2.A	2.F	1c	.
.	.	.	4g
.	.	.	[2a
4G	4G	.	.
=85	=85	=85	=85
1F	1A	[0c	4a]
.	.	.	4g
.	.	.	1f
1C	1G	.	.
.	.	.	2e
=86	=86	=86	=86
[0F	[0A	1c_	[0f
.	.	1c_	.
=87	=87	=87	=87
0F]	0A]	0c]	0f]
*-	*-	*-	*-
!! Et iterum
**kern	**kern	**kern	**kern	**kern
*Ibass	*Itenor	*Itenor	*Icalto	*Icant
!Bassus	!Tenor 2	!Tenor 1	!Altus	!Cantus
*clefF4	*clefGv2	*clefGv2	*clefG2	*clefG2
*k[b-]	*k[b-]	*k[b-]	*k[b-]	*k[b-]
*F:ion	*F:ion	*F:ion	*F:ion	*F:ion
*M4/2	*M4/2	*M4/2	*M4/2	*M4/2
=88	=88	=88	=88	=88
0r	0r	1F	0r	2r
.	.	.	.	2c
.	.	2B-	.	2d
.	.	2A	.	2c
=89	=89	=89	=89	=89
1r	0r	2G	0r	2d
.	.	2F	.	2f
1C	.	2G	.	2f
.	.	2G	.	2e
=90	=90	=90	=90	=90
1.F	2r	2.A	1c	1f
.	2F	.	.	.
.	.	4G	.	.
.	2A	2F	2d	1r
2E	2G	2C	2c	.
=91	=91	=91	=91	=91
2D	2A	2F	2d	0r
2C	2c	2G	2e	.
2D	2c	1F	2f	.
2D	2B	.	2f	.
=92	=92	=92	=92	=92
1C	2.c	1G	1e	2r
.	.	.	.	2c
.	4B-	.	.	.
1r	4A	2r	1c	2e
.	4G	.	.	.
.	2A	2c	.	2f
=93	=93	=93	=93	=93
1r	1G	2c	2d	0g
.	.	2B	2d	.
2r	1C	[1c	4e	.
.	.	.	4d	.
2C	.	.	4e	.
.	.	.	4f	.
=94	=94	=94	=94	=94
2E	2r	1c]	2g	2e
2F	2c	.	4f	2a
.	.	.	4e	.
1G	2c	2r	4d	[1g
.	.	.	4c	.
.	2B	[2G	2d	.
=95	=95	=95	=95	=95
2C	1c	2G]	2e	1g]
2E	.	2G	2c	.
1D	1F	2A	2d	1f
.	.	2B-	[2f	.
=96	=96	=96	=96	=96
0C	1A	[0c	2f]	0r
.	.	.	4e	.
.	.	.	4d	.
.	1G	.	1e	.
=97	=97	=97	=97	=97
0r	2F	0c]	1f	2r
.	2F	.	.	2f
.	2F	.	2r	1a
.	2F	.	[2c	.
=98	=98	=98	=98	=98
0r	2E	1r	4c]	2g
.	.	.	4G	.
.	2D	.	2B-	1f
.	[1C	1c	2A	.
.	.	.	4G	4e
.	.	.	4F	4d
=99	=99	=99	=99	=99
0r	1C]	2c	2G	2e
.	.	2c	2e-	2g
.	1r	2B-	2d	2g
.	.	2A	[2c	2f
=100	=100	=100	=100	=100
0r	1r	1G	2c]	2e
.	.	.	2B-	2d
.	2r	1A	2.c	2c
.	[2c	.	.	2e
.	.	.	4B-	.
=101	=101	=101	=101	=101
2r	2c]	2.F	2.A	1.f
1F	2c	.	.	.
.	.	4E	4G	.
.	1B	2D	1F	.
2F	.	2D	.	2d
=102	=102	=102	=102	=102
1E	2c	1C	1G	2.g
.	1c	.	.	.
.	.	.	.	8f
.	.	.	.	8g
2F	.	1r	1F	1a
2F	2A	.	.	.
=103	=103	=103	=103	=103
2D	2B	0r	1r	1r
2E	2.c	.	.	.
[1F	.	.	2r	[1a
.	4A	.	.	.
.	2d	.	[2f	.
=104	=104	=104	=104	=104
1F]	2c	1r	2f]	2a]
.	2F	.	2f	2a
1C	2G	[1c	1e	1g
.	2G	.	.	.
=105	=105	=105	=105	=105
0r	4F	2c]	2f	1a
.	4G	.	.	.
.	4A	2c	2f	.
.	4F	.	.	.
.	1G	1B	2d	2r
.	.	.	2e	2g
=106	=106	=106	=106	=106
0r	4F	2c	0f	1.a
.	4G	.	.	.
.	4A	2c	.	.
.	4B-	.	.	.
.	2c	2A	.	.
.	[2d	2B	.	4g
.	.	.	.	4f
=107	=107	=107	=107	=107
0r	4d]	1c	2.e	2a
.	4c	.	.	.
.	1c	.	.	2g
.	.	.	8d	.
.	.	.	8c	.
.	.	1G	1d	1g
.	2B	.	.	.
=108	=108	=108	=108	=108
2r	2c	1A	2c	2e
2F	2c	.	1f	2a
2D	2d	1B-	.	2f
2E	2G	.	4e	2g
.	.	.	4d	.
=109	=109	=109	=109	=109
0F	0c	1A	2c	0a
.	.	.	2F	.
.	.	1F	1f	.
=110	=110	=110	=110	=110
[0C	[0c	[0G	[0e	[0g
=111	=111	=111	=111	=111
0C]	0c]	0G]	0e]	0g]
!! Qui cum Patre
*Ibass	*Itenor	*Itenor	*Icalto	*Icant
!Bassus	!Tenor 2	!Tenor 1	!Altus	!Cantus
*clefF4	*clefGv2	*clefGv2	*clefG2	*clefG2
*k[b-]	*k[b-]	*k[b-]	*k[b-]	*k[b-]
*F:ion	*F:ion	*F:ion	*F:ion	*F:ion
*M4/2	*M4/2	*M4/2	*M4/2	*M4/2
=112	=112	=112	=112	=112
0r	0r	0r	1c	0r
.	.	.	2d	.
.	.	.	[2f	.
=113	=113	=113	=113	=113
0r	0r	1F	4f]	0r
.	.	.	4f	.
.	.	.	2f	.
.	.	2G	2e	.
.	.	[2B-	4d	.
.	.	.	4e	.
=114	=114	=114	=114	=114
1r	0r	4B-]	4f	0r
.	.	4B-	4g	.
.	.	2B-	1f	.
1C	.	2A	.	.
.	.	2G	2e	.
=115	=115	=115	=115	=115
2D	0r	4F	2d	0r
.	.	4G	.	.
2.F	.	4A	4c	.
.	.	4B-	4B-	.
.	.	4c	4A	.
4F	.	4d	4B-	.
2F	.	[2c	4c	.
.	.	.	4d	.
=116	=116	=116	=116	=116
2E	2r	2c]	4e	1r
.	.	.	4c	.
2D	2F	2B	1f	.
1C	1G	1c	.	2r
.	.	.	2e	2c
=117	=117	=117	=117	=117
0r	2.B-	2r	1f	2d
.	.	2d	.	2.f
.	4B-	.	.	.
.	2B-	2d	1r	.
.	.	.	.	4f
.	2A	2c	.	2f
=118	=118	=118	=118	=118
0r	2G	2B-	2r	2e
.	4F	2A	2f	2d
.	4G	.	.	.
.	4A	2.c	1e	4c
.	4B-	.	.	4d
.	[2c	.	.	4e
.	.	4c	.	4f
=119	=119	=119	=119	=119
1r	2c]	1G	1d	2.g
.	2B	.	.	.
.	.	.	.	4f
2r	1c	1A	[1c	2e
[2F	.	.	.	[2a
=120	=120	=120	=120	=120
2F]	0r	2r	1c]	2a]
2E	.	1c	.	2g
1D	.	.	2r	2a
.	.	2B-	[2f	2b-
=121	=121	=121	=121	=121
1C	0r	2A	2f]	1cc
.	.	2G	2e	.
1BB-	.	1B-	2d	2.f
.	.	.	2d	.
.	.	.	.	4g
=122	=122	=122	=122	=122
1FF	2r	1A	2.c	4a
.	.	.	.	4b-
.	1A	.	.	2.cc
.	.	.	4d	.
1r	.	1r	4e	.
.	.	.	4f	4a
.	2G	.	[2g	2b-
=123	=123	=123	=123	=123
1r	2A	0r	4g]	2cc
.	.	.	4f	.
.	2B-	.	1f	4b-
.	.	.	.	4a
2r	1c	.	.	1g
2C	.	.	2e	.
=124	=124	=124	=124	=124
2BB-	1F	2r	2d	0r
2AA	.	2c	2c	.
2GG	2r	2B-	2r	.
2FF	[2c	2A	2f	.
=125	=125	=125	=125	=125
4GG	2c]	1G	2e-	0r
4AA	.	.	.	.
4BB-	1B-	.	1d	.
4C	.	.	.	.
4D	.	1F	.	.
4E	.	.	.	.
2F	2A	.	[2c	.
=126	=126	=126	=126	=126
2E	2G	2C	2c]	0r
1F	2F	2D	2B	.
.	1G	2C	1c	.
2E	.	[2c	.	.
=127	=127	=127	=127	=127
1F	1F	2c]	1A	2r
.	.	2A	.	2f
1r	1r	2B-	1r	2d
.	.	2c	.	2e
=128	=128	=128	=128	=128
0r	0r	1d	2r	1f
.	.	.	1B-	.
.	.	2G	.	2.g
.	.	2B-	2G	.
.	.	.	.	4f
=129	=129	=129	=129	=129
0r	0r	2c	2A	2e
.	.	2.d	2B-	2d
.	.	.	1c	1e
.	.	4c	.	.
.	.	[2c	.	.
=130	=130	=130	=130	=130
0r	1r	2c]	2F	1d
.	.	2B	2G	.
.	2r	2.c	2.A	2c
.	[2F	.	.	[2a
.	.	4B-	4B-	.
=131	=131	=131	=131	=131
0r	2F]	1A	2c	2a]
.	2D	.	2.d	2f
.	2E	1r	.	2g
.	.	.	4c	.
.	2F	.	[2c	4f
.	.	.	.	4e
=132	=132	=132	=132	=132
1r	1G	1r	2c]	1d
.	.	.	2B	.
2r	4C	1G	[1c	1e
.	4D	.	.	.
[2C	4E	.	.	.
.	4F	.	.	.
=133	=133	=133	=133	=133
2C]	2G	2E	1c]	2r
2AA	1F	2F	.	2f
2BB-	.	1G	2r	2d
[2C	4E	.	[2c	[2e
.	4D	.	.	.
=134	=134	=134	=134	=134
2C]	2E	1A	2c]	2e]
2D	2D	.	2A	2f#
2GG	2D	2G	2B-	2g
2AA	2A	4F	2c	2c
.	.	4E	.	.
=135	=135	=135	=135	=135
1BB-	2F	2D	1B-	1d
.	1B-	2d	.	.
[1C	.	[1c	2G	2e
.	2A	.	2A	[2f
=136	=136	=136	=136	=136
1C]	1G	2c]	1c	2f]
.	.	2G	.	2e
[1FF	[1F	[1A	[1c	[1f
=137	=137	=137	=137	=137
1FF_	1F_	1A_	1c_	1f_
1FF_	1F_	1A_	1c_	1f_
=138	=138	=138	=138	=138
1FF]	1F]	1A]	1c]	1f]
!! Confiteor
*Ibass	*Itenor	*Itenor	*Icalto	*Icant
!Bassus	!Tenor 2	!Tenor 1	!Altus	!Cantus
*clefF4	*clefGv2	*clefGv2	*clefG2	*clefG2
*k[b-]	*k[b-]	*k[b-]	*k[b-]	*k[b-]
*F:ion	*F:ion	*F:ion	*F:ion	*F:ion
*M4/2	*M4/2	*M4/2	*M4/2	*M4/2
=139	=139	=139	=139	=139
0r	1F	0r	0r	0r
.	2A	.	.	.
.	2B-	.	.	.
=140	=140	=140	=140	=140
1C	1.c	0r	0r	0r
2E	.	.	.	.
2F	2A	.	.	.
=141	=141	=141	=141	=141
2G	2B-	0r	0r	0r
2E	2c	.	.	.
2F	1d	.	.	.
2G	.	.	.	.
=142	=142	=142	=142	=142
4A	4c	0r	1F	0r
4G	4B-	.	.	.
4F	4A	.	.	.
4E	4G	.	.	.
4D	4F	.	2A	.
4C	4E	.	.	.
2D	2F	.	2B-	.
=143	=143	=143	=143	=143
1C	4G	0r	1.c	2r
.	4F	.	.	.
.	4E	.	.	2c
.	4D	.	.	.
1AA	2C	.	.	2e
.	2c	.	2A	2f
=144	=144	=144	=144	=144
2GG	2d	0r	2B-	2g
2C	2G	.	2c	2e
1BB-	1B-	.	1d	2f
.	.	.	.	2g
=145	=145	=145	=145	=145
1FF	1A	1F	1.c	1.a
1r	1r	2A	.	.
.	.	2B-	2d	4g
.	.	.	.	4f
=146	=146	=146	=146	=146
0r	0r	2c	2e	1a
.	.	2A	1f	.
.	.	2B-	.	1g
.	.	2c	2e	.
=147	=147	=147	=147	=147
1D	2r	1d	1f	0f
.	1A	.	.	.
1F	.	2c	1r	.
.	[2c	2A	.	.
=148	=148	=148	=148	=148
2E	2c]	2G	2r	0r
1D	2B-	4F	2d	.
.	.	4G	.	.
.	1A	4A	2f	.
.	.	4B-	.	.
[2C	.	2c	[2e	.
=149	=149	=149	=149	=149
2C]	1.G	2C	2e]	0r
2BB	.	2D	2d	.
2C	.	2E	2c	.
2D	2F	2F	2B	.
=150	=150	=150	=150	=150
0C	2G	2E	2c	0r
.	2A	2.F	2c	.
.	1G	.	1c	.
.	.	8E	.	.
.	.	8D	.	.
.	.	2E	.	.
=151	=151	=151	=151	=151
0FF	0F	2.F	1A	2r
.	.	.	.	1a
.	.	4G	.	.
.	.	1A	1c	.
.	.	.	.	2cc
=152	=152	=152	=152	=152
0r	2r	0r	2d	2b-
.	2F	.	2f	2a
.	2G	.	2e	2g
.	[2B-	.	4d	2f
.	.	.	4c	.
=153	=153	=153	=153	=153
1r	2B-]	0r	4d	2g
.	.	.	4e	.
.	2A	.	1f	2a
2r	2B-	.	.	1g
2C	2c	.	2e	.
=154	=154	=154	=154	=154
1D	1.F	2r	2d	1f
.	.	1A	2d	.
2.F	.	.	1c	1a
.	2A	2c	.	.
4F	.	.	.	.
=155	=155	=155	=155	=155
2BB-	1F	2B-	2d	2b-
2FF	.	2A	2c	2.cc
2C	2E	2G	2e	.
.	.	.	.	4b-
2FF	2C	2F	2f	2a
=156	=156	=156	=156	=156
0C	2E	2G	4e	2g
.	.	.	4d	.
.	2F	2A	4c	1f
.	.	.	4B-	.
.	1G	1G	1c	.
.	.	.	.	2e
=157	=157	=157	=157	=157
[0FF	[0A	[0F	[0c	[0f
=158	=158	=158	=158	=158
0FF]	0A]	0F]	0c]	0f]
!! Et vitam
*Ibass	*Itenor	*Itenor	*Icalto	*Icant
!Bassus	!Tenor 2	!Tenor 1	!Altus	!Cantus
*clefF4	*clefGv2	*clefGv2	*clefG2	*clefG2
*k[b-]	*k[b-]	*k[b-]	*k[b-]	*k[b-]
*F:ion	*F:ion	*F:ion	*F:ion	*F:ion
*M4/2	*M4/2	*M4/2	*M4/2	*M4/2
=159	=159	=159	=159	=159
0r	0r	0r	1r	1g
.	.	.	1c	1e
=160	=160	=160	=160	=160
0r	0r	0r	1A	2.f
.	.	.	.	4e
.	.	.	2.B-	2d
.	.	.	.	2f
.	.	.	4A	.
=161	=161	=161	=161	=161
0r	0r	0r	2G	2b-
.	.	.	2F	2a
.	.	.	2B-	4g
.	.	.	.	4f
.	.	.	2A	[2f
=162	=162	=162	=162	=162
0r	0r	1r	2G	4f]
.	.	.	.	4e
.	.	.	1c	4e
.	.	.	.	8d
.	.	.	.	8c
.	.	1G	.	2d
.	.	.	2B	2d
=163	=163	=163	=163	=163
1C	0r	1E	1c	2c
.	.	.	.	2g
1AA	.	2.F	2r	1a
.	.	.	2c	.
.	.	4E	.	.
=164	=164	=164	=164	=164
2.BB-	0r	2D	2d	1f
.	.	2F	2.d	.
4AA	.	.	.	.
2GG	.	2B-	.	2r
.	.	.	4B-	.
2FF	.	2A	2c	2f
=165	=165	=165	=165	=165
2BB-	0r	4G	2d	2g
.	.	4F	.	.
2AA	.	1F	2c	2a
2GG	.	.	2B-	2b-
2GG	.	2E	2G	2b-
=166	=166	=166	=166	=166
1FF	1c	1F	2.A	2a
.	.	.	.	2.cc
.	.	.	4B-	.
1FF	1A	2r	1c	.
.	.	.	.	4b-
.	.	[2F	.	4a
.	.	.	.	4g
=167	=167	=167	=167	=167
2BB-	2.B-	2F]	1d	2f
4GG	.	2G	.	1b-
4AA	4A	.	.	.
4BB-	2G	1D	[1d	.
4C	.	.	.	.
2D	2F	.	.	2a
=168	=168	=168	=168	=168
2BB-	2B-	2r	2d]	4g
.	.	.	.	4f
2FF	2A	2F	2c	1f
1C	2G	2G	[1c	.
.	2G	2c	.	2e
=169	=169	=169	=169	=169
[0FF	[0F	2.A	1c]	[0f
.	.	4B-	.	.
.	.	2c	2.A	.
.	.	2c	.	.
.	.	.	4B-	.
=170	=170	=170	=170	=170
1FF_	1F_	[0A	[0c	1f_
1FF_	1F_	.	.	1f_
=171	=171	=171	=171	=171
0FF]	0F]	0A]	0c]	0f]
=172	=172	=172	=172	=172
1r	0r	0r	1f	0r
1F	.	.	2d	.
.	.	.	2c	.
=173	=173	=173	=173	=173
2D	1r	0r	2d	0r
2C	.	.	2e	.
2.D	1F	.	[1f	.
4E	.	.	.	.
=174	=174	=174	=174	=174
2F	2D	0r	2f]	0r
2.G	2C	.	2e	.
.	2.D	.	1d	.
4F	.	.	.	.
[2F	.	.	.	.
.	4E	.	.	.
=175	=175	=175	=175	=175
2F]	2F	1r	1c	0r
2E	2G	.	.	.
2F	2F	1c	2.A	.
4FF	[2F	.	.	.
4GG	.	.	4B-	.
=176	=176	=176	=176	=176
4AA	2F]	2A	0c	1r
4BB-	.	.	.	.
2C	2E	2G	.	.
1FF	2.F	2.A	.	1cc
.	4G	4B-	.	.
=177	=177	=177	=177	=177
0r	2A	2c	1r	2a
.	2B-	2.d	.	2g
.	1A	.	1F	2.a
.	.	4c	.	.
.	.	[2c	.	.
.	.	.	.	4b-
=178	=178	=178	=178	=178
0r	1r	2c]	2A	2cc
.	.	2B	2G	2.dd
.	2r	2.c	2.A	.
.	.	.	.	4cc
.	2F	.	.	[2cc
.	.	4B-	4B-	.
=179	=179	=179	=179	=179
0r	2A	2A	2c	2cc]
.	2B-	2G	2.d	2b-
.	1c	2F	.	2a
.	.	.	4c	.
.	.	2A	[2c	2f
=180	=180	=180	=180	=180
1r	1d	2G	2c]	2g
.	.	2.G	2B	2g
1C	[1c	.	2c	1e
.	.	4F	.	.
.	.	4E	2G	.
.	.	4D	.	.
=181	=181	=181	=181	=181
2AA	2c]	2C	2A	2f
2GG	2B-	2D	2B-	2g
2.AA	2.A	2C	[1c	4f
.	.	.	.	4e
.	.	[2c	.	2a
4BB-	8G	.	.	.
.	8F	.	.	.
=182	=182	=182	=182	=182
2C	2E	4c]	0c]	2g
.	.	4B-	.	.
2FF	2F	2A	.	1f
1C	1G	2G	.	.
.	.	2c	.	2e
=183	=183	=183	=183	=183
[0FF	[0F	[0A	[0c	[0f
=184	=184	=184	=184	=184
0FF]	0F]	0A]	0c]	0f]
==	==	==	==	==
*-	*-	*-	*-	*-
!!!CDT: 1525/^1526/-1594/2/2
!!!OCY: Italia
!!!AGN: Mass (Paraphrase)
!!!AST: renaissance, vocal
!!!ASW: Gregorian Mass
!!!PWK: Masses, Book Mantuan II
!!!RNB: Cadence finals: C
!!!YOR: Le Opere Complete, v. 19, p. 87
!!!YOO: Rome, Italy: Fratelli Scalera
!!!END: 1992//
!!!EED: John Miller
!!!YEC: Copyright 2000, John Miller
!!!YEN: United States of America
!!!YEM: Rights to all derivative electronic formats reserved.
!!!YEM: Refer to licensing agreement for further details.
!!!YEM: This file must be accompanied by the licensing agreement.
!!!YEM: A copy of the licensing agreement may be found at http://www.music-cog.ohio-state.edu/HumdrumDatabases/Palestrina/license.txt
!!!EMD: converted to Humdrum by Bret Aarden
